X:1
T:Title
%%score ( 1 2 ) { 3 | 4 }
L:1/8
Q:1/4=95
M:3/4
K:G
V:1 treble nm="Grand Piano, Soprano"
V:2 treble 
V:3 bass nm="Choir Pad, Bass"
V:4 bass 
V:1
 D2 D[DG] [GB]2 | [Gd]2 [Fd][FA] [FA]2 | [GB][=Fd] [Ec]3 [CE] | [^CF][CE] D4 | D2 D[DG] [GB]2 | %5
w: By~J.~F.~Fargo,~1880 * * *|||||
 [Gd]2 [Ge][GA] [FA]2 | .B2 z2 z2 | [DE][DF] [DG]4 | [DG]2 [DG][DG] [EG]2 | [EG]2 [EG][EA] [^DB]2 | %10
w: |||||
 [^DB]2 [EB]3 [EA] | [EA][EA] [DA]4 | D2 D[DG] [GB]2 | [Gd]2 [Ge][GA] [FA]2 | .B2 z2 z2 | %15
w: |||||
 [DE][DF] [DG]4- | [DG]4 z2 |] %17
w: ||
V:2
 x6 | x6 | x6 | x6 | x6 | x6 | G-[Gd] [Ec]3 [EA] | x6 | x6 | x6 | x6 | x6 | x6 | x6 | %14
 G-[Gd] [Ec]3 [EA] | x6 | x6 |] %17
V:3
 B,2 B,B, D2 | B,2 A,[K:treble]D D2 | DB, C3[K:bass] G, | A,G, F,4 | F,A, B,B,[K:treble] D2 | %5
 B,2 CE D2 | DB, C3 C | CC[K:bass] B,4 | B,2 B,B, B,2 | B,2 CE, F,2 | F,2 E,3 E, | A,G, F,4 | %12
 F,A, B,B,[K:treble] D2 | B,2 CE D2 | DB, C3 C | CC B,4- | B,4 z2 |] %17
V:4
 G,2 G,G, G,2 | G,2 D,D, D,2 | G,2 C,3 C, | A,,A,, D,4 | D,F, G,G, G,2 | G,2 C,^C, D,2 | %6
 G,2 C,3 C, | D,D, [G,,G,]4 | G,2 G,F, E,2 | E,2 C,C, B,,2 | B,,2 C,3 C, | ^C,C, D,4 | %12
 D,F, G,G, G,2 | G,2 C,^C, D,2 | G,2 C,3 C, | D,D, [G,,G,]4- | [G,,G,]4 z2 |] %17

